static/assets/img/icons/theme/devices/iphone-x.svg

<svg height="24" viewBox="0 0 24 24" width="24" xmlns="http://www.w3.org/2000/svg"><g fill="none" fill-rule="evenodd"><path d="m0 0h24v24h-24z" opacity="0"/><g fill="#000"><path d="m8 2.5c-.69035594 0-1.25.55964406-1.25 1.25v16.5c0 .6903559.55964406 1.25 1.25 1.25h8c.6903559 0 1.25-.5596441 1.25-1.25v-16.5c0-.69035594-.5596441-1.25-1.25-1.25z" opacity=".3"/><path d="m8 2.5c-.69035594 0-1.25.55964406-1.25 1.25v16.5c0 .6903559.55964406 1.25 1.25 1.25h8c.6903559 0 1.25-.5596441 1.25-1.25v-16.5c0-.69035594-.5596441-1.25-1.25-1.25zm0-1.5h8c1.5187831 0 2.75 1.23121694 2.75 2.75v16.5c0 1.5187831-1.2312169 2.75-2.75 2.75h-8c-1.51878306 0-2.75-1.2312169-2.75-2.75v-16.5c0-1.51878306 1.23121694-2.75 2.75-2.75zm1.5.75h5c.2761424 0 .5.22385763.5.5v1c0 .27614237-.2238576.5-.5.5h-5c-.27614237 0-.5-.22385763-.5-.5v-1c0-.27614237.22385763-.5.5-.5z" fill-rule="nonzero"/></g></g></svg>

<svg width="24px" height="24px" viewBox="0 0 24 24" version="1.1" xmlns="http://www.w3.org/2000/svg" xmlns:xlink="http://www.w3.org/1999/xlink">
    <title>Icon For iPhone-X</title>
    <g stroke="none" stroke-width="1" fill="none" fill-rule="evenodd">
        <rect opacity="0" x="0" y="0" width="24" height="24"></rect>
        <path d="M8,2.5 C7.30964406,2.5 6.75,3.05964406 6.75,3.75 L6.75,20.25 C6.75,20.9403559 7.30964406,21.5 8,21.5 L16,21.5 C16.6903559,21.5 17.25,20.9403559 17.25,20.25 L17.25,3.75 C17.25,3.05964406 16.6903559,2.5 16,2.5 L8,2.5 Z" fill="#000000" opacity="0.3"></path>
        <path d="M8,2.5 C7.30964406,2.5 6.75,3.05964406 6.75,3.75 L6.75,20.25 C6.75,20.9403559 7.30964406,21.5 8,21.5 L16,21.5 C16.6903559,21.5 17.25,20.9403559 17.25,20.25 L17.25,3.75 C17.25,3.05964406 16.6903559,2.5 16,2.5 L8,2.5 Z M8,1 L16,1 C17.5187831,1 18.75,2.23121694 18.75,3.75 L18.75,20.25 C18.75,21.7687831 17.5187831,23 16,23 L8,23 C6.48121694,23 5.25,21.7687831 5.25,20.25 L5.25,3.75 C5.25,2.23121694 6.48121694,1 8,1 Z M9.5,1.75 L14.5,1.75 C14.7761424,1.75 15,1.97385763 15,2.25 L15,3.25 C15,3.52614237 14.7761424,3.75 14.5,3.75 L9.5,3.75 C9.22385763,3.75 9,3.52614237 9,3.25 L9,2.25 C9,1.97385763 9.22385763,1.75 9.5,1.75 Z" fill="#000000" fill-rule="nonzero"></path>
    </g>
</svg>
